packages/kaspersky-hexa-ui-icons/src/iconsSVGs/16/Step.svg

<svg xmlns="http://www.w3.org/2000/svg" width="16" height="16" fill="none" viewBox="0 0 16 16"><path fill="#000" fill-rule="evenodd" d="M10 5.3H6a.7.7 0 0 0-.7.7v4a.7.7 0 0 0 .7.7h4a.7.7 0 0 0 .7-.7V6a.7.7 0 0 0-.7-.7M6 4c-1.1046 0-2 .8954-2 2v4c0 1.1046.8954 2 2 2h4c1.1046 0 2-.8954 2-2V6c0-1.1046-.8954-2-2-2z"/></svg>

<svg width="16" height="16" viewBox="0 0 16 16" fill="none" xmlns="http://www.w3.org/2000/svg">
<path fill-rule="evenodd" clip-rule="evenodd" d="M10 5.3H6C5.6134 5.3 5.3 5.6134 5.3 6V10C5.3 10.3866 5.6134 10.7 6 10.7H10C10.3866 10.7 10.7 10.3866 10.7 10V6C10.7 5.6134 10.3866 5.3 10 5.3ZM6 4C4.89543 4 4 4.89543 4 6V10C4 11.1046 4.89543 12 6 12H10C11.1046 12 12 11.1046 12 10V6C12 4.89543 11.1046 4 10 4H6Z" fill="black"/>
</svg>
